!!!!SEGMENT: pl-kk--kk-i-111--004-002_anonim--deo-gratias-de-passione-2dum.krn
!!!cenid: 18xx:2561
!!!COM: Anonim
!!!COM-rismid: pe30004985
!!!CDT:
!!!CNT:
!!!GTL: Deo gratias
!!!OTL: De Passione 2dum
!!!OMV: 002
!!!PDT: 1824
!!!AGN: Sacred
!!!SMS-siglum: PL-Kk
!!!SMS-shelfmark: Kk.I.111
!!!SMS-shelfwork: 004-002 G
!!!SMS-variant:
!!!SMS-altvar:
!!!NIFC-rismid: 1001157675
!!!URL-scan: http://repozytorium.nifc.pl/skany/pl-kk-nut--i-111
!!!ONB-nifc: UWAGA: A, T1, T2. Podział na poszególne Deo gratias. A: skan 0002 (m.in)
!!!key:
**kern	**text	**kern	**text	**kern	**text
*part3	*part3	*part2	*part2	*part1	*part1
*staff3	*staff3	*staff2	*staff2	*staff1	*staff1
*Itenor	*	*Itenor	*	*Ialto	*
*I"Tenore Vagante.	*	*I"Tenore Chorale.	*	*I"Alto.	*
*I'T 2	*	*I'T 1	*	*I'A	*
*clefC4	*	*clefC4	*	*clefC3	*
*k[b-]	*	*k[b-]	*	*k[b-]	*
*F:	*	*F:	*	*F:	*
*M2/1	*	*M2/1	*	*M2/1	*
*met(C|)	*	*met(C|)	*	*met(C|)	*
*all\right	*	*	*	*all\right	*
=1-	=1-	=1-	=1-	=1-	=1-
!LO:TX:t=P:problem:kreska pseudotaktowa	!	!	!	!LO:TX:t=P:problem:kreska pseudotaktowa	!
!LO:TX:a:t=4.	!	!LO:TX:t=P:problem:kreska pseudotaktowa	!	!LO:TX:a:t=2.	!
00r	.	1F	De-	0r	.
!	!	!LO:TX:t=P:problem:kreska pseudotaktowa	!	!	!
.	.	1G	.	.	.
=2-	=2-	=2-	=2-	=2-	=2-
!	!	!LO:TX:t=P:problem:kreska pseudotaktowa	!	!LO:TX:t=P:problem:kreska pseudotaktowa	!
.	.	1A	.	1c	De-
*	*	*	*	*2\right	*
!	!	!LO:TX:t=P:problem:kreska pseudotaktowa	!	!	!
.	.	1G	.	2.d\	-o
!	!	!	!	!LO:TX:t=P:problem:kreska pseudotaktowa	!
.	.	.	.	4e\	.
=3-	=3-	=3-	=3-	=3-	=3-
!LO:TX:t=P:problem:kreska pseudotaktowa	!	!LO:TX:t=P:problem:kreska pseudotaktowa	!	!	!
1F	De-	1A	.	2.f\	gra-
!	!	!	!	!LO:TX:t=P:problem:kreska pseudotaktowa	!
.	.	.	.	4e\	.
!LO:TX:t=P:problem:kreska pseudotaktowa	!	!LO:TX:t=P:problem:kreska pseudotaktowa	!	!	!
1G	-o	1B-X	.	4d\	.
.	.	.	.	4c\	.
.	.	.	.	4d\	.
!	!	!	!	!LO:TX:t=P:problem:kreska pseudotaktowa	!
.	.	.	.	4e\	.
=4-	=4-	=4-	=4-	=4-	=4-
!	!	!LO:TX:t=P:problem:kreska pseudotaktowa	!	!	!
4A\	gra-	1A	-o	4f\	.
4G\	.	.	.	4c\	.
4A\	.	.	.	1f	.
!LO:TX:t=P:problem:kreska pseudotaktowa	!	!	!	!	!
4F\	.	.	.	.	.
!	!	!LO:TX:t=P:problem:kreska pseudotaktowa	!	!	!
2G/	.	1G	.	.	.
!	!	!	!	!LO:TX:t=P:problem:kreska pseudotaktowa	!
1c\	.	.	.	2e\	.
=5-	=5-	=5-	=5-	=5-	=5-
!	!	!LO:TX:t=P:problem:kreska pseudotaktowa	!	!	!
.	.	1F	.	2.d\	.
*2\right	*	*	*	*	*
!LO:TX:t=P:problem:kreska pseudotaktowa	!	!	!	!	!
2B-X\	.	.	.	.	.
!	!	!	!	!LO:TX:t=P:problem:kreska pseudotaktowa	!
.	.	.	.	4d\	-ti-
!	!	!LO:TX:t=P:problem:kreska pseudotaktowa	!	!LO:TX:t=P:problem:kreska pseudotaktowa	!
2A\	.	1A	gra-	1c	-as
!LO:TX:t=P:problem:kreska pseudotaktowa	!	!	!	!	!
2F/	-ti-	.	.	.	.
=6-	=6-	=6-	=6-	=6-	=6-
!	!	!LO:TX:t=P:problem:kreska pseudotaktowa	!	!	!
2G/	-as	1G	.	2r	.
!	!	!	!	!LO:TX:t=P:problem:kreska pseudotaktowa	!
1c	De-	.	.	2c\	De-
!	!	!LO:TX:t=P:problem:kreska pseudotaktowa	!	!LO:TX:t=P:problem:kreska pseudotaktowa	!
.	.	1F	.	1d	-o
!LO:TX:t=P:problem:kreska pseudotaktowa	!	!	!	!	!
2Bn\	-o	.	.	.	.
=7-	=7-	=7-	=7-	=7-	=7-
!	!	!LO:TX:t=P:problem:kreska pseudotaktowa	!	!	!
2c\	gra-	1E	.	4e\	.
.	.	.	.	4d\	.
!LO:TX:t=P:problem:kreska pseudotaktowa	!	!	!	!	!
2G/	.	.	.	4e\	.
!	!	!	!	!LO:TX:t=P:problem:kreska pseudotaktowa	!
.	.	.	.	4c\	.
!LO:TX:t=P:problem:kreska pseudotaktowa	!	!LO:TX:t=P:problem:kreska pseudotaktowa	!	!	!
1A	.	1F	.	2f\	gra-
!	!	!	!	!LO:TX:t=P:problem:kreska pseudotaktowa	!
.	.	.	.	2c/	.
=8-	=8-	=8-	=8-	=8-	=8-
!LO:TX:t=P:problem:kreska pseudotaktowa	!	!LO:TX:t=P:problem:kreska pseudotaktowa	!	!LO:TX:t=P:problem:kreska pseudotaktowa	!
1B-y	.	1D	.	1d	.
!LO:TX:t=P:problem:kreska pseudotaktowa	!	!LO:TX:t=P:problem:kreska pseudotaktowa	!	!	!
1A	.	1F	.	2c\	.
!	!	!	!	!LO:TX:t=P:problem:kreska pseudotaktowa	!
.	.	.	.	2d\	.
=9-	=9-	=9-	=9-	=9-	=9-
!	!	!LO:TX:t=P:problem:kreska pseudotaktowa	!	!	!
2G/	.	1E	.	2.e\	.
1c	.	.	.	.	.
!	!	!	!	!LO:TX:t=P:problem:kreska pseudotaktowa	!
.	.	.	.	4d\	.
!	!	!LO:TX:t=P:problem:kreska pseudotaktowa	!	!	!
.	.	1G	.	2c\	.
!LO:TX:t=P:problem:kreska pseudotaktowa	!	!	!	!LO:TX:t=P:problem:kreska pseudotaktowa	!
2B-X\	.	.	.	2e\	.
=10-	=10-	=10-	=10-	=10-	=10-
!	!	!LO:TX:t=P:problem:kreska pseudotaktowa	!	!LO:TX:t=P:problem:kreska pseudotaktowa	!
2A\	.	1A	.	1f	.
!LO:TX:t=P:problem:kreska pseudotaktowa	!	!	!	!	!
2F/	-ti-	.	.	.	.
!LO:TX:t=P:problem:kreska pseudotaktowa	!	!LO:TX:t=P:problem:kreska pseudotaktowa	!	!LO:TX:t=P:problem:kreska pseudotaktowa	!
1B-	-as	1G	.	1d	.
=11-	=11-	=11-	=11-	=11-	=11-
!	!	!LO:TX:t=P:problem:kreska pseudotaktowa	!	!	!
2G/	De-	1En	-ti-	2.c\	-ti-
!LO:TX:t=P:problem:kreska pseudotaktowa	!	!	!	!	!
2G/	-o	.	.	.	.
!	!	!	!	!LO:TX:t=P:problem:kreska pseudotaktowa	!
.	.	.	.	4c\	-as
!	!	!LO:N:vis=0	!	!	!
2A\	gra-	00F;	-as.	2c\	De-
1B-\	.	.	.	1d\	-o
=12-	=12-	=12-	=12-	=12-	=12-
.	.	.	.	.	.
!LO:TX:t=P:problem:kreska pseudotaktowa	!	!	!	!LO:TX:t=P:problem:kreska pseudotaktowa	!
2F/	.	.	.	2c\	gra-
!	!	!	!	!LO:TX:t=P:problem:kreska pseudotaktowa	!
1.B-	.	.	.	0d	-ti-
=13-	=13-	=13-	=13-	=13-	=13-
.	.	.	.	.	.
!LO:TX:t=P:problem:kreska pseudotaktowa	!	!	!	!	!
2B-\	-ti-	.	.	.	.
!LO:N:vis=0	!	!	!	!LO:N:vis=0	!
1A;	-as.	1ryy	.	1c	-as
=-	=-	=-	=-	=-	=-
*-	*-	*-	*-	*-	*-
!!!system-decoration: [(s1,s2,s3)]
!!!AIN: 1 alto 2 tenor
!!!ENC: Marta Chmielewska
!!!END: 2021-08-04
!!!ENC: Tomasz Grochalski
!!!END: 2021-07-09
